flaticon/transport/motorbike.svg

<svg xmlns="http://www.w3.org/2000/svg" width="32" height="32" viewBox="0 0 24 24">
    <path d="M 23.078125 0 L 20.121094 0 C 19.640625 0 19.265625 0.339844 19.207031 0.800781 L 17.199219 0.800781 C 17 0.800781 16.855469 0.910156 16.8125 1.089844 L 15.542969 2.609375 C 15.265625 1.128906 13.957031 0 12.398438 0 C 10.777344 0 9.429688 1.222656 9.226562 2.792969 L 7.167969 1.03125 C 7.109375 0.886719 6.976562 0.800781 6.800781 0.800781 L 4.792969 0.800781 C 4.734375 0.339844 4.359375 0 3.878906 0 L 0.921875 0 C 0.398438 0 0 0.398438 0 0.921875 L 0 1.480469 C 0 2 0.398438 2.398438 0.921875 2.398438 L 3.878906 2.398438 C 4.359375 2.398438 4.734375 2.058594 4.792969 1.601562 L 6.613281 1.601562 L 9.273438 3.878906 C 9.390625 4.417969 9.648438 4.910156 10 5.308594 L 10 8 L 9.519531 8 C 8.679688 8 7.960938 8.640625 7.921875 9.480469 L 7.28125 18.679688 C 7.28125 19.121094 7.441406 19.558594 7.71875 19.878906 C 8 20.199219 8.441406 20.398438 8.878906 20.398438 L 9.601562 20.398438 L 9.601562 21.199219 C 9.601562 22.761719 10.839844 24 12.398438 24 C 13.960938 24 15.199219 22.761719 15.199219 21.199219 L 15.199219 20.398438 L 15.921875 20.398438 C 16.359375 20.398438 16.800781 20.199219 17.082031 19.921875 C 17.398438 19.601562 17.558594 19.160156 17.519531 18.71875 L 16.878906 9.519531 C 16.839844 8.640625 16.121094 8 15.28125 8 L 14.800781 8 L 14.800781 5.308594 C 15.15625 4.90625 15.410156 4.414062 15.527344 3.871094 L 17.421875 1.601562 L 19.207031 1.601562 C 19.265625 2.058594 19.640625 2.398438 20.121094 2.398438 L 23.082031 2.398438 C 23.601562 2.398438 24 2 24 1.480469 L 24 0.921875 C 24 0.398438 23.601562 0 23.078125 0 Z M 4 1.480469 C 4 1.558594 3.960938 1.601562 3.878906 1.601562 L 0.921875 1.601562 C 0.839844 1.601562 0.800781 1.558594 0.800781 1.480469 L 0.800781 0.921875 C 0.800781 0.839844 0.839844 0.800781 0.921875 0.800781 L 3.878906 0.800781 C 3.960938 0.800781 4 0.839844 4 0.921875 Z M 8.878906 19.601562 C 8.640625 19.601562 8.441406 19.519531 8.28125 19.359375 C 8.160156 19.199219 8.078125 18.960938 8.078125 18.761719 L 8.71875 9.558594 C 8.761719 9.121094 9.078125 8.800781 9.519531 8.800781 L 10 8.800781 L 10 14.945312 C 9.949219 15.027344 9.90625 15.113281 9.863281 15.203125 C 9.679688 15.574219 9.601562 15.972656 9.601562 16.398438 L 9.601562 19.601562 Z M 14.398438 21.199219 C 14.398438 22.320312 13.519531 23.199219 12.398438 23.199219 C 11.28125 23.199219 10.398438 22.320312 10.398438 21.199219 L 10.398438 16.398438 C 10.398438 16.371094 10.402344 16.339844 10.402344 16.3125 C 10.402344 16.296875 10.402344 16.28125 10.40625 16.265625 C 10.40625 16.257812 10.40625 16.25 10.40625 16.238281 C 10.433594 15.902344 10.546875 15.597656 10.71875 15.320312 C 11.042969 14.835938 11.496094 14.535156 12.011719 14.4375 C 12.027344 14.433594 12.039062 14.433594 12.050781 14.429688 C 12.074219 14.425781 12.101562 14.421875 12.125 14.417969 C 12.140625 14.417969 12.152344 14.414062 12.167969 14.414062 C 12.195312 14.410156 12.21875 14.40625 12.246094 14.40625 C 12.257812 14.40625 12.269531 14.402344 12.285156 14.402344 C 12.324219 14.402344 12.359375 14.398438 12.398438 14.398438 C 12.4375 14.398438 12.476562 14.402344 12.515625 14.402344 C 12.53125 14.402344 12.542969 14.40625 12.558594 14.40625 C 12.582031 14.410156 12.605469 14.410156 12.628906 14.414062 C 12.644531 14.414062 12.664062 14.417969 12.679688 14.417969 C 12.699219 14.421875 12.71875 14.425781 12.738281 14.429688 C 12.757812 14.429688 12.777344 14.433594 12.792969 14.4375 C 12.8125 14.441406 12.828125 14.445312 12.847656 14.449219 C 12.867188 14.453125 12.886719 14.457031 12.90625 14.460938 C 12.917969 14.464844 12.929688 14.46875 12.945312 14.472656 C 12.984375 14.484375 13.019531 14.496094 13.058594 14.507812 C 13.074219 14.511719 13.089844 14.519531 13.105469 14.523438 C 13.121094 14.53125 13.140625 14.539062 13.160156 14.542969 C 13.175781 14.550781 13.191406 14.558594 13.207031 14.566406 C 13.222656 14.574219 13.242188 14.578125 13.257812 14.585938 C 13.277344 14.597656 13.292969 14.605469 13.3125 14.613281 C 13.324219 14.621094 13.339844 14.628906 13.355469 14.636719 C 13.386719 14.652344 13.414062 14.667969 13.445312 14.6875 C 13.457031 14.695312 13.472656 14.703125 13.484375 14.710938 C 13.5 14.722656 13.515625 14.734375 13.535156 14.742188 C 13.550781 14.757812 13.570312 14.769531 13.585938 14.78125 C 13.597656 14.789062 13.605469 14.792969 13.613281 14.800781 C 13.761719 14.910156 13.890625 15.042969 14 15.1875 L 14 15.199219 L 14.03125 15.230469 C 14.089844 15.3125 14.140625 15.398438 14.1875 15.488281 C 14.300781 15.730469 14.371094 15.976562 14.394531 16.238281 C 14.394531 16.25 14.394531 16.257812 14.394531 16.265625 C 14.394531 16.28125 14.398438 16.296875 14.398438 16.3125 C 14.398438 16.339844 14.398438 16.371094 14.398438 16.398438 Z M 15.28125 8.800781 C 15.71875 8.800781 16.039062 9.121094 16.078125 9.558594 L 16.71875 18.761719 C 16.761719 19 16.679688 19.199219 16.519531 19.359375 C 16.359375 19.519531 16.160156 19.601562 15.921875 19.601562 L 15.199219 19.601562 L 15.199219 16.398438 C 15.199219 15.972656 15.121094 15.574219 14.9375 15.203125 C 14.894531 15.113281 14.851562 15.027344 14.800781 14.945312 L 14.800781 8.800781 Z M 14 14.09375 C 13.605469 13.820312 13.136719 13.648438 12.625 13.609375 C 12.621094 13.609375 12.617188 13.609375 12.617188 13.609375 C 12.585938 13.605469 12.554688 13.605469 12.523438 13.601562 C 12.484375 13.601562 12.441406 13.601562 12.398438 13.601562 C 12.359375 13.601562 12.316406 13.601562 12.277344 13.601562 C 12.246094 13.605469 12.21875 13.605469 12.191406 13.609375 C 12.183594 13.609375 12.179688 13.609375 12.171875 13.609375 C 11.742188 13.644531 11.339844 13.773438 10.988281 13.976562 C 10.925781 14.007812 10.863281 14.042969 10.800781 14.078125 L 10.800781 5.96875 C 11.273438 6.242188 11.816406 6.398438 12.398438 6.398438 C 12.980469 6.398438 13.527344 6.242188 14 5.96875 Z M 12.398438 5.601562 C 11.078125 5.601562 10 4.519531 10 3.199219 C 10 1.878906 11.078125 0.800781 12.398438 0.800781 C 13.71875 0.800781 14.800781 1.878906 14.800781 3.199219 C 14.800781 4.519531 13.71875 5.601562 12.398438 5.601562 Z M 23.199219 1.480469 C 23.199219 1.558594 23.160156 1.601562 23.078125 1.601562 L 20.121094 1.601562 C 20.039062 1.601562 20 1.558594 20 1.480469 L 20 0.921875 C 20 0.839844 20.039062 0.800781 20.121094 0.800781 L 23.078125 0.800781 C 23.160156 0.800781 23.199219 0.839844 23.199219 0.921875 Z M 23.199219 1.480469"/>
    <path d="M 12.398438 1.601562 C 11.519531 1.601562 10.800781 2.320312 10.800781 3.199219 C 10.800781 3.441406 10.960938 3.601562 11.199219 3.601562 C 11.441406 3.601562 11.601562 3.441406 11.601562 3.199219 C 11.601562 2.761719 11.960938 2.398438 12.398438 2.398438 C 12.640625 2.398438 12.800781 2.238281 12.800781 2 C 12.800781 1.761719 12.640625 1.601562 12.398438 1.601562 Z M 12.398438 1.601562"/>
</svg>

<svg xmlns="http://www.w3.org/2000/svg" width="32" height="32" viewBox="0 0 24 24">
    <path d="M23.078 0h-2.957c-.48 0-.855.34-.914.8h-2.008c-.199 0-.344.11-.387.29l-1.269 1.52A3.21 3.21 0 0 0 12.398 0a3.21 3.21 0 0 0-3.171 2.793L7.168 1.031c-.059-.144-.191-.23-.367-.23H4.793A.905.905 0 0 0 3.879 0H.922A.904.904 0 0 0 0 .922v.558c0 .52.398.918.922.918h2.957c.48 0 .855-.34.914-.796h1.82l2.66 2.277c.118.539.375 1.031.727 1.43V8h-.48c-.84 0-1.56.64-1.598 1.48l-.64 9.2c0 .441.16.879.437 1.199.281.32.722.52 1.16.52h.723v.8A2.78 2.78 0 0 0 12.398 24c1.563 0 2.801-1.238 2.801-2.8v-.802h.723c.437 0 .879-.199 1.16-.476.316-.32.477-.762.438-1.203l-.641-9.2A1.586 1.586 0 0 0 15.28 8h-.48V5.309c.355-.403.61-.895.726-1.438l1.895-2.27h1.785a.905.905 0 0 0 .914.797h2.961c.52 0 .918-.398.918-.918V.922A.904.904 0 0 0 23.078 0zM4 1.48c0 .079-.04.122-.121.122H.922C.84 1.602.8 1.559.8 1.48V.922C.8.84.84.8.92.8H3.88C3.96.8 4 .84 4 .92zm4.879 18.122a.813.813 0 0 1-.598-.243 1.068 1.068 0 0 1-.203-.597l.64-9.203c.044-.438.36-.758.802-.758H10v6.144a2.69 2.69 0 0 0-.137.258c-.183.371-.261.77-.261 1.195v3.204zm5.52 1.597c0 1.121-.88 2-2 2-1.118 0-2-.879-2-2v-4.8l.003-.087c0-.015 0-.03.004-.046v-.028c.028-.336.14-.64.313-.918.324-.484.777-.785 1.293-.883.015-.003.027-.003.039-.007l.074-.012c.016 0 .027-.004.043-.004.027-.004.05-.008.078-.008.012 0 .024-.004.04-.004.038 0 .073-.004.112-.004.04 0 .079.004.118.004.015 0 .027.004.043.004.023.004.046.004.07.008.016 0 .035.004.05.004l.06.012c.019 0 .038.004.054.008l.055.011.058.012.04.012.113.035c.015.004.03.012.046.015a.226.226 0 0 0 .055.02l.047.023c.016.008.035.012.05.02.02.012.036.02.056.027.011.008.027.016.042.024.032.015.06.031.09.05l.04.024c.015.012.03.023.05.031.016.016.035.028.05.04a1.91 1.91 0 0 1 .414.406l.001.011.031.031c.059.082.11.168.156.258.114.242.184.489.208.75v.028c0 .015.003.03.003.047v.085zm.882-12.398c.438 0 .758.32.797.758l.64 9.203a.65.65 0 0 1-.198.597.813.813 0 0 1-.598.243h-.723v-3.204c0-.425-.078-.824-.261-1.195a2.69 2.69 0 0 0-.137-.258V8.801zM14 14.094a2.773 2.773 0 0 0-1.375-.485h-.008c-.031-.004-.062-.004-.094-.007h-.245c-.032.003-.06.003-.087.007h-.02c-.429.036-.831.164-1.183.368-.062.03-.125.066-.187.101v-8.11a3.188 3.188 0 0 0 3.2 0zm-1.602-8.492A2.407 2.407 0 0 1 10 3.199 2.404 2.404 0 0 1 12.398.801a2.407 2.407 0 0 1 2.403 2.398 2.41 2.41 0 0 1-2.403 2.403zM23.2 1.48c0 .079-.039.122-.12.122H20.12c-.082 0-.121-.043-.121-.122V.922c0-.082.04-.121.121-.121h2.957c.082 0 .121.039.121.12zm0 0"/>
    <path d="M12.398 1.602c-.878 0-1.597.718-1.597 1.597 0 .242.16.403.398.403.242 0 .403-.16.403-.403 0-.437.359-.8.796-.8.243 0 .403-.16.403-.399 0-.238-.16-.398-.403-.398zm0 0"/>
</svg>
